actions/22x22-dark/go-home.svg

<svg xmlns="http://www.w3.org/2000/svg" viewBox="0 0 22 22">
 <defs id="defs3051">
   <style type="text/css" id="current-color-scheme">
     .ColorScheme-Text {
       color:#f2f2f2;
     }
     </style>
 </defs>
   <path
      style="fill:currentColor;fill-opacity:1;stroke:none"
      d="m11 3-8.4414062 8.857422 1.6328124 1.714844 1.3613282-1.429688v6.857422h4.3574218 2.1796878 4.357422v-6.857422l1.361328 1.429688 1.632812-1.714844zm3.267578 1.1425781v.8574219l2.179688 2.2851562v-3.1425781z"
      class="ColorScheme-Text" />
</svg>

<svg xmlns="http://www.w3.org/2000/svg" viewBox="0 0 22 22">
  <defs id="defs3051">
    <style type="text/css" id="current-color-scheme">
      .ColorScheme-Text {
        color:#f2f2f2
      }
      </style>
  </defs>
 <path 
     style="fill:currentColor;fill-opacity:1;stroke:none"      
	 class="ColorScheme-Text"
        d="M 11 3 L 2.5585938 11.857422 L 4.1914062 13.572266 L 5.5527344 12.142578 L 5.5527344 19 L 9.9101562 19 L 12.089844 19 L 16.447266 19 L 16.447266 12.142578 L 17.808594 13.572266 L 19.441406 11.857422 L 11 3 z M 14.267578 4.1425781 L 14.267578 5 L 16.447266 7.2851562 L 16.447266 4.1425781 L 14.267578 4.1425781 z "
     />
</svg>
